Systematic/src/svg/Capcom - CP System II-content (As).svg

<svg xmlns="http://www.w3.org/2000/svg" xml:space="preserve" width="234.667" height="330.667"><defs><clipPath id="a" clipPathUnits="userSpaceOnUse"><path d="M0 256h256V0H0Z"/></clipPath><clipPath id="b" clipPathUnits="userSpaceOnUse"><path d="M40 252h176V4H40Z"/></clipPath></defs><g clip-path="url(#a)" transform="matrix(1.33333 0 0 -1.33333 -53.333 336)"><g clip-path="url(#b)" style="opacity:.5"><path d="M0 0c-38.956 0-69.292-6.141-81.15-16.427-4.353-3.776-6.85-9.27-6.85-15.074V-228c0-11.028 8.972-20 20-20H68c11.028 0 20 8.972 20 20v196.499c0 5.804-2.496 11.298-6.85 15.074C69.292-6.141 38.955 0 0 0" style="fill:#fff;fill-opacity:1;fill-rule:nonzero;stroke:none" transform="translate(128 252)"/></g><path d="M0 0c-6.824 5.919-28.829 14.47-75.908 14.47S-144.992 5.919-151.816 0c-2.615-2.268-4.092-5.569-4.092-9.031V-205.53c0-6.627 5.372-12 12-12h136c6.627 0 12 5.373 12 12V-9.031C4.092-5.569 2.615-2.268 0 0" style="fill:gray;fill-opacity:1;fill-rule:nonzero;stroke:none" transform="translate(203.908 229.53)"/><path d="M0 0a4 4 0 1 0-8 0 4 4 0 0 0 8 0" style="fill:#333;fill-opacity:1;fill-rule:nonzero;stroke:none" transform="translate(80 232)"/><path d="M0 0a2 2 0 1 0-4.001.001A2 2 0 0 0 0 0" style="fill:#191919;fill-opacity:1;fill-rule:nonzero;stroke:none" transform="translate(78 232)"/><path d="M0 0v-36c0-6.627 5.373-12 12-12h136c6.627 0 12 5.373 12 12V0Z" style="fill:#666;fill-opacity:1;fill-rule:nonzero;stroke:none" transform="translate(48 60)"/><path d="M0 0c-5.615-2.066-9.362-4.229-11.545-6.123-2.615-2.268-4.092-5.569-4.092-9.03v-188.499l8 28z" style="fill:#737373;fill-opacity:1;fill-rule:nonzero;stroke:none" transform="translate(63.637 235.652)"/><path d="M0 0c5.615-2.066 9.362-4.229 11.546-6.123 2.614-2.268 4.091-5.569 4.091-9.03v-188.499l-8 28z" style="fill:#737373;fill-opacity:1;fill-rule:nonzero;stroke:none" transform="translate(192 235.652)"/><path d="M0 0h-26.784v-2H-1.52c.489.678.999 1.343 1.52 2" style="fill:#262626;fill-opacity:1;fill-rule:nonzero;stroke:none" transform="translate(74.784 96)"/><path d="M0 0h-30.29v-2h28.455Q-.945-.98 0 0" style="fill:#262626;fill-opacity:1;fill-rule:nonzero;stroke:none" transform="translate(78.29 100)"/><path d="M0 0h-39.789v-2h37.006C-1.88-1.31-.948-.646 0 0" style="fill:#262626;fill-opacity:1;fill-rule:nonzero;stroke:none" transform="translate(87.79 108)"/><path d="M0 0h-34.538v-2h32.31A60 60 0 0 0 0 0" style="fill:#262626;fill-opacity:1;fill-rule:nonzero;stroke:none" transform="translate(82.538 104)"/><path d="M0 0h-23.902v-2h22.669C-.836-1.326-.429-.657 0 0" style="fill:#262626;fill-opacity:1;fill-rule:nonzero;stroke:none" transform="translate(71.902 92)"/><path d="M0 0h-17.113v-2H-.41c.119.672.263 1.336.41 2" style="fill:#262626;fill-opacity:1;fill-rule:nonzero;stroke:none" transform="translate(65.113 76)"/><path d="M0 0h-18.185v-2H-.579c.181.671.369 1.339.579 2" style="fill:#262626;fill-opacity:1;fill-rule:nonzero;stroke:none" transform="translate(66.185 80)"/><path d="M0 0h-19.656v-2H-.798c.247.674.52 1.338.798 2" style="fill:#262626;fill-opacity:1;fill-rule:nonzero;stroke:none" transform="translate(67.656 84)"/><path d="M0 0h-21.555v-2h20.554Q-.524-.99 0 0" style="fill:#262626;fill-opacity:1;fill-rule:nonzero;stroke:none" transform="translate(69.555 88)"/><path d="M0 0h26.784v-2H1.52A55 55 0 0 1 0 0" style="fill:#262626;fill-opacity:1;fill-rule:nonzero;stroke:none" transform="translate(181.005 96)"/><path d="M0 0h30.289v-2H1.835A56 56 0 0 1 0 0" style="fill:#262626;fill-opacity:1;fill-rule:nonzero;stroke:none" transform="translate(177.5 100)"/><path d="M0 0h39.789v-2H2.783A63 63 0 0 1 0 0" style="fill:#262626;fill-opacity:1;fill-rule:nonzero;stroke:none" transform="translate(168 108)"/><path d="M0 0h34.537v-2H2.228A60 60 0 0 1 0 0" style="fill:#262626;fill-opacity:1;fill-rule:nonzero;stroke:none" transform="translate(173.252 104)"/><path d="M0 0h23.901v-2H1.233A51 51 0 0 1 0 0" style="fill:#262626;fill-opacity:1;fill-rule:nonzero;stroke:none" transform="translate(183.888 92)"/><path d="M0 0h17.113v-2H.41A48 48 0 0 1 0 0" style="fill:#262626;fill-opacity:1;fill-rule:nonzero;stroke:none" transform="translate(190.676 76)"/><path d="M0 0h18.185v-2H.579A47 47 0 0 1 0 0" style="fill:#262626;fill-opacity:1;fill-rule:nonzero;stroke:none" transform="translate(189.605 80)"/><path d="M0 0h19.656v-2H.799A48 48 0 0 1 0 0" style="fill:#262626;fill-opacity:1;fill-rule:nonzero;stroke:none" transform="translate(188.133 84)"/><path d="M0 0h21.555v-2H1.002Q.525-.99 0 0" style="fill:#262626;fill-opacity:1;fill-rule:nonzero;stroke:none" transform="translate(186.234 88)"/><path d="M0 0h-32a4 4 0 0 0-4 4v16a4 4 0 0 0 4 4H0a4 4 0 0 0 4-4V4a4 4 0 0 0-4-4" style="fill:#fff;fill-opacity:1;fill-rule:nonzero;stroke:none" transform="translate(180 132)"/><path d="M0 0h-56a4 4 0 0 0-4 4v72a4 4 0 0 0 4 4H0a4 4 0 0 0 4-4V4a4 4 0 0 0-4-4" style="fill:#fff;fill-opacity:1;fill-rule:nonzero;stroke:none" transform="translate(128 136)"/><path d="M72 225h-8v-1h8zm112-1h8v1h-8z" style="fill:#333;fill-opacity:1;fill-rule:nonzero;stroke:none"/><path d="M0 0h13.364c.397.674.804 1.343 1.234 2H.087Z" style="fill:#171717;fill-opacity:1;fill-rule:nonzero;stroke:none" transform="translate(57.515 90)"/><path d="m0 0-.087-2h27.006c.902.69 1.835 1.354 2.783 2z" style="fill:#171717;fill-opacity:1;fill-rule:nonzero;stroke:none" transform="translate(58.298 108)"/><path d="M0 0h22.483a60 60 0 0 0 2.228 2H.087Z" style="fill:#171717;fill-opacity:1;fill-rule:nonzero;stroke:none" transform="translate(58.037 102)"/><path d="M0 0h18.802q.891 1.02 1.835 2H.087Z" style="fill:#171717;fill-opacity:1;fill-rule:nonzero;stroke:none" transform="translate(57.863 98)"/><path d="M0 0h15.787c.487.678.998 1.343 1.519 2H.087Z" style="fill:#171717;fill-opacity:1;fill-rule:nonzero;stroke:none" transform="translate(57.689 94)"/><path d="M0 0h-13.364a52 52 0 0 1-1.234 2H-.087z" style="fill:#171717;fill-opacity:1;fill-rule:nonzero;stroke:none" transform="translate(198.485 90)"/><path d="m0 0 .087-2h-27.006a63 63 0 0 1-2.783 2z" style="fill:#171717;fill-opacity:1;fill-rule:nonzero;stroke:none" transform="translate(197.702 108)"/><path d="M0 0h-22.483a60 60 0 0 1-2.228 2H-.087z" style="fill:#171717;fill-opacity:1;fill-rule:nonzero;stroke:none" transform="translate(197.963 102)"/><path d="M0 0h-18.802a56 56 0 0 1-1.835 2h20.55z" style="fill:#171717;fill-opacity:1;fill-rule:nonzero;stroke:none" transform="translate(198.137 98)"/><path d="M0 0h-15.786a53 53 0 0 1-1.52 2H-.087z" style="fill:#171717;fill-opacity:1;fill-rule:nonzero;stroke:none" transform="translate(198.31 94)"/></g></svg>

<?xml version="1.0" encoding="UTF-8" standalone="no"?>
<svg
   xmlns:dc="http://purl.org/dc/elements/1.1/"
   xmlns:cc="http://creativecommons.org/ns#"
   xmlns:rdf="http://www.w3.org/1999/02/22-rdf-syntax-ns#"
   xmlns:svg="http://www.w3.org/2000/svg"
   xmlns="http://www.w3.org/2000/svg"
   viewBox="0 0 234.66665 330.66665"
   height="330.66666"
   width="234.66666"
   xml:space="preserve"
   id="svg2"
   version="1.1"><metadata
     id="metadata8"><rdf:RDF><cc:Work
         rdf:about=""><dc:format>image/svg+xml</dc:format><dc:type
           rdf:resource="http://purl.org/dc/dcmitype/StillImage" /></cc:Work></rdf:RDF></metadata><defs
     id="defs6"><clipPath
       id="clipPath18"
       clipPathUnits="userSpaceOnUse"><path
         id="path16"
         d="M 0,256 H 256 V 0 H 0 Z" /></clipPath><clipPath
       id="clipPath26"
       clipPathUnits="userSpaceOnUse"><path
         id="path24"
         d="M 40,252 H 216 V 4 H 40 Z" /></clipPath></defs><g
     transform="matrix(1.3333333,0,0,-1.3333333,-53.333332,335.99999)"
     id="g10"><g
       id="g12"><g
         clip-path="url(#clipPath18)"
         id="g14"><g
           id="g20"><g
             id="g22" /><g
             id="g34"><g
               style="opacity:0.5"
               id="g32"
               clip-path="url(#clipPath26)"><g
                 id="g30"
                 transform="translate(128,252)"><path
                   id="path28"
                   style="fill:#ffffff;fill-opacity:1;fill-rule:nonzero;stroke:none"
                   d="M 0,0 C -38.956,0 -69.292,-6.141 -81.15,-16.427 -85.503,-20.203 -88,-25.697 -88,-31.501 V -228 c 0,-11.028 8.972,-20 20,-20 H 0 68 c 11.028,0 20,8.972 20,20 v 196.499 c 0,5.804 -2.496,11.298 -6.85,15.074 C 69.292,-6.141 38.955,0 0,0" /></g></g></g></g><g
           transform="translate(203.9082,229.5298)"
           id="g36"><path
             id="path38"
             style="fill:#808080;fill-opacity:1;fill-rule:nonzero;stroke:none"
             d="m 0,0 c -6.824,5.919 -28.829,14.47 -75.908,14.47 -47.079,0 -69.084,-8.551 -75.908,-14.47 -2.615,-2.268 -4.092,-5.569 -4.092,-9.031 V -205.53 c 0,-6.627 5.372,-12 12,-12 h 68 68 c 6.627,0 12,5.373 12,12 V -9.031 C 4.092,-5.569 2.615,-2.268 0,0" /></g><g
           transform="translate(80,232)"
           id="g40"><path
             id="path42"
             style="fill:#333333;fill-opacity:1;fill-rule:nonzero;stroke:none"
             d="m 0,0 c 0,-2.209 -1.791,-4 -4,-4 -2.209,0 -4,1.791 -4,4 0,2.209 1.791,4 4,4 2.209,0 4,-1.791 4,-4" /></g><g
           transform="translate(78,232)"
           id="g44"><path
             id="path46"
             style="fill:#191919;fill-opacity:1;fill-rule:nonzero;stroke:none"
             d="m 0,0 c 0,-1.104 -0.896,-2 -2,-2 -1.104,0 -2,0.896 -2,2 0,1.104 0.896,2 2,2 1.104,0 2,-0.896 2,-2" /></g><g
           transform="translate(48,60)"
           id="g48"><path
             id="path50"
             style="fill:#666666;fill-opacity:1;fill-rule:nonzero;stroke:none"
             d="m 0,0 v -36 c 0,-6.627 5.373,-12 12,-12 h 68 68 c 6.627,0 12,5.373 12,12 V 0 Z" /></g><g
           transform="translate(63.6372,235.6523)"
           id="g52"><path
             id="path54"
             style="fill:#737373;fill-opacity:1;fill-rule:nonzero;stroke:none"
             d="m 0,0 c -5.615,-2.066 -9.362,-4.229 -11.545,-6.123 -2.615,-2.268 -4.092,-5.569 -4.092,-9.03 v -188.499 l 8,28 z" /></g><g
           transform="translate(192,235.6523)"
           id="g56"><path
             id="path58"
             style="fill:#737373;fill-opacity:1;fill-rule:nonzero;stroke:none"
             d="m 0,0 c 5.615,-2.066 9.362,-4.229 11.546,-6.123 2.614,-2.268 4.091,-5.569 4.091,-9.03 v -188.499 l -8,28 z" /></g><g
           transform="translate(74.7842,96)"
           id="g60"><path
             id="path62"
             style="fill:#262626;fill-opacity:1;fill-rule:nonzero;stroke:none"
             d="M 0,0 H -26.784 V -2 H -1.52 c 0.489,0.678 0.999,1.343 1.52,2" /></g><g
           transform="translate(78.2896,100)"
           id="g64"><path
             id="path66"
             style="fill:#262626;fill-opacity:1;fill-rule:nonzero;stroke:none"
             d="M 0,0 H -30.29 V -2 H -1.835 C -1.242,-1.32 -0.629,-0.654 0,0" /></g><g
           transform="translate(87.7891,108)"
           id="g68"><path
             id="path70"
             style="fill:#262626;fill-opacity:1;fill-rule:nonzero;stroke:none"
             d="M 0,0 H -39.789 V -2 H -2.783 C -1.88,-1.31 -0.948,-0.646 0,0" /></g><g
           transform="translate(82.5376,104)"
           id="g72"><path
             id="path74"
             style="fill:#262626;fill-opacity:1;fill-rule:nonzero;stroke:none"
             d="m 0,0 h -34.538 v -2 h 32.31 c 0.724,0.682 1.465,1.35 2.228,2" /></g><g
           transform="translate(71.9019,92)"
           id="g76"><path
             id="path78"
             style="fill:#262626;fill-opacity:1;fill-rule:nonzero;stroke:none"
             d="M 0,0 H -23.902 V -2 H -1.233 C -0.836,-1.326 -0.429,-0.657 0,0" /></g><g
           transform="translate(65.1133,76)"
           id="g80"><path
             id="path82"
             style="fill:#262626;fill-opacity:1;fill-rule:nonzero;stroke:none"
             d="M 0,0 H -17.113 V -2 H -0.41 c 0.119,0.672 0.263,1.336 0.41,2" /></g><g
           transform="translate(66.1846,80)"
           id="g84"><path
             id="path86"
             style="fill:#262626;fill-opacity:1;fill-rule:nonzero;stroke:none"
             d="M 0,0 H -18.185 V -2 H -0.579 C -0.398,-1.329 -0.21,-0.661 0,0" /></g><g
           transform="translate(67.6563,84)"
           id="g88"><path
             id="path90"
             style="fill:#262626;fill-opacity:1;fill-rule:nonzero;stroke:none"
             d="m 0,0 h -19.656 v -2 h 18.858 c 0.247,0.674 0.52,1.338 0.798,2" /></g><g
           transform="translate(69.5547,88)"
           id="g92"><path
             id="path94"
             style="fill:#262626;fill-opacity:1;fill-rule:nonzero;stroke:none"
             d="M 0,0 H -21.555 V -2 H -1.001 C -0.683,-1.326 -0.349,-0.66 0,0" /></g><g
           transform="translate(181.0049,96)"
           id="g96"><path
             id="path98"
             style="fill:#262626;fill-opacity:1;fill-rule:nonzero;stroke:none"
             d="M 0,0 H 26.784 V -2 H 1.52 C 1.031,-1.322 0.521,-0.657 0,0" /></g><g
           transform="translate(177.5,100)"
           id="g100"><path
             id="path102"
             style="fill:#262626;fill-opacity:1;fill-rule:nonzero;stroke:none"
             d="M 0,0 H 30.289 V -2 H 1.835 C 1.242,-1.32 0.629,-0.654 0,0" /></g><g
           transform="translate(168,108)"
           id="g104"><path
             id="path106"
             style="fill:#262626;fill-opacity:1;fill-rule:nonzero;stroke:none"
             d="M 0,0 H 39.789 V -2 H 2.783 C 1.881,-1.31 0.948,-0.647 0,0" /></g><g
           transform="translate(173.252,104)"
           id="g108"><path
             id="path110"
             style="fill:#262626;fill-opacity:1;fill-rule:nonzero;stroke:none"
             d="M 0,0 H 34.537 V -2 H 2.228 C 1.504,-1.318 0.763,-0.65 0,0" /></g><g
           transform="translate(183.8877,92)"
           id="g112"><path
             id="path114"
             style="fill:#262626;fill-opacity:1;fill-rule:nonzero;stroke:none"
             d="M 0,0 H 23.901 V -2 H 1.233 C 0.836,-1.326 0.429,-0.657 0,0" /></g><g
           transform="translate(190.6758,76)"
           id="g116"><path
             id="path118"
             style="fill:#262626;fill-opacity:1;fill-rule:nonzero;stroke:none"
             d="M 0,0 H 17.113 V -2 H 0.41 C 0.291,-1.328 0.147,-0.663 0,0" /></g><g
           transform="translate(189.6045,80)"
           id="g120"><path
             id="path122"
             style="fill:#262626;fill-opacity:1;fill-rule:nonzero;stroke:none"
             d="M 0,0 H 18.185 V -2 H 0.579 C 0.398,-1.329 0.21,-0.661 0,0" /></g><g
           transform="translate(188.1328,84)"
           id="g124"><path
             id="path126"
             style="fill:#262626;fill-opacity:1;fill-rule:nonzero;stroke:none"
             d="M 0,0 H 19.656 V -2 H 0.799 C 0.551,-1.326 0.278,-0.662 0,0" /></g><g
           transform="translate(186.2344,88)"
           id="g128"><path
             id="path130"
             style="fill:#262626;fill-opacity:1;fill-rule:nonzero;stroke:none"
             d="M 0,0 H 21.555 V -2 H 1.002 C 0.684,-1.326 0.35,-0.66 0,0" /></g><g
           transform="translate(180,132)"
           id="g132"><path
             id="path134"
             style="fill:#ffffff;fill-opacity:1;fill-rule:nonzero;stroke:none"
             d="m 0,0 h -32 c -2.209,0 -4,1.791 -4,4 v 16 c 0,2.209 1.791,4 4,4 H 0 c 2.209,0 4,-1.791 4,-4 V 4 C 4,1.791 2.209,0 0,0" /></g><g
           transform="translate(128,136)"
           id="g136"><path
             id="path138"
             style="fill:#ffffff;fill-opacity:1;fill-rule:nonzero;stroke:none"
             d="m 0,0 h -56 c -2.209,0 -4,1.791 -4,4 v 72 c 0,2.209 1.791,4 4,4 H 0 c 2.209,0 4,-1.791 4,-4 V 4 C 4,1.791 2.209,0 0,0" /></g><path
           id="path140"
           style="fill:#333333;fill-opacity:1;fill-rule:nonzero;stroke:none"
           d="m 72,225 h -8 v -1 h 8 z" /><path
           id="path142"
           style="fill:#333333;fill-opacity:1;fill-rule:nonzero;stroke:none"
           d="m 184,224 h 8 v 1 h -8 z" /><g
           transform="translate(57.5151,90)"
           id="g144"><path
             id="path146"
             style="fill:#171717;fill-opacity:1;fill-rule:nonzero;stroke:none"
             d="m 0,0 h 13.364 c 0.397,0.674 0.804,1.343 1.234,2 H 0.087 Z" /></g><g
           transform="translate(58.2979,108)"
           id="g148"><path
             id="path150"
             style="fill:#171717;fill-opacity:1;fill-rule:nonzero;stroke:none"
             d="m 0,0 -0.087,-2 h 27.006 c 0.902,0.69 1.835,1.354 2.783,2 z" /></g><g
           transform="translate(58.0371,102)"
           id="g152"><path
             id="path154"
             style="fill:#171717;fill-opacity:1;fill-rule:nonzero;stroke:none"
             d="m 0,0 h 22.483 c 0.724,0.682 1.465,1.35 2.228,2 H 0.087 Z" /></g><g
           transform="translate(57.8628,98)"
           id="g156"><path
             id="path158"
             style="fill:#171717;fill-opacity:1;fill-rule:nonzero;stroke:none"
             d="m 0,0 h 18.802 c 0.594,0.68 1.206,1.346 1.835,2 H 0.087 Z" /></g><g
           transform="translate(57.689,94)"
           id="g160"><path
             id="path162"
             style="fill:#171717;fill-opacity:1;fill-rule:nonzero;stroke:none"
             d="m 0,0 h 15.787 c 0.487,0.678 0.998,1.343 1.519,2 H 0.087 Z" /></g><g
           transform="translate(198.4854,90)"
           id="g164"><path
             id="path166"
             style="fill:#171717;fill-opacity:1;fill-rule:nonzero;stroke:none"
             d="m 0,0 h -13.364 c -0.398,0.674 -0.805,1.343 -1.234,2 h 14.511 z" /></g><g
           transform="translate(197.7021,108)"
           id="g168"><path
             id="path170"
             style="fill:#171717;fill-opacity:1;fill-rule:nonzero;stroke:none"
             d="m 0,0 0.087,-2 h -27.006 c -0.902,0.69 -1.835,1.353 -2.783,2 z" /></g><g
           transform="translate(197.9629,102)"
           id="g172"><path
             id="path174"
             style="fill:#171717;fill-opacity:1;fill-rule:nonzero;stroke:none"
             d="m 0,0 h -22.483 c -0.724,0.682 -1.465,1.35 -2.228,2 h 24.624 z" /></g><g
           transform="translate(198.1367,98)"
           id="g176"><path
             id="path178"
             style="fill:#171717;fill-opacity:1;fill-rule:nonzero;stroke:none"
             d="m 0,0 h -18.802 c -0.593,0.68 -1.206,1.346 -1.835,2 h 20.55 z" /></g><g
           transform="translate(198.3105,94)"
           id="g180"><path
             id="path182"
             style="fill:#171717;fill-opacity:1;fill-rule:nonzero;stroke:none"
             d="m 0,0 h -15.786 c -0.488,0.678 -0.998,1.343 -1.52,2 h 17.219 z" /></g></g></g></g></svg>
